X:1
T:Muckross Abbey
R:reel
M:4/4
L:1/8
K:D
dB|:AF~F2 G2GB|~A2FD EGFE|DEFA dfef|dBAF E2dB|
|AF~F2 G2GB|~A2FD EGFE|DEFA dfef|1 dBAF D2dB:|2 dBAF D2de|]
|:~f2fa ~g2gb|afdf eBBA|~f2fe defe|dBAF E2fg|
|af~f2 bf~f2|afdf edBd|~f2fe defe|1 dBAF D2de:|2 dBAF D2dB|]